X:1
T:Aikendrum
C:Traditional
S:Ewan McColl and Peggy Seeger
K:Ddor
M:4/4
L:1/8
A,A, | D>E DC A,G, A,C | F2 ED E2 A,A, | D>E DC A,G, A,C | D6 AA | A>G AB c2 BA | 
GF EF G2 FG | AG FD A2 A,A, | DC DE FE FG | AG FD A2 A,A, | D6 :|
%%textfont Times-Roman 20
%%begintext
Ken ya who a whig can fight: Aikendrum, Aikendrum
Ken ya who a whig can fight: Aikendrum
He can fight the hero bright: With his heels and armor light
And the wind of heav'nly might: Aikendrum, Aikendrum
Is not Rowley in the right: Aikendrum

Did ya hear of Sunderland: Aikendrum, Aikendrum
Did ya hear of Sunderland: Aikendrum
That man of high command: Who has sworn to clear the land
He is vanished from our strand: Aikendrum, Aikendrum
Or the eel has ta'en the sand: Aikendrum

Donald's running around and 'round: Aikendrum, Aikendrum
Donald's running around and 'round: Aikendrum
But the chief cannot be found: And the Dutchmen they are drowned
And King Jamie he is crowned: Aikendrum, Aikendrum
But the dogs will get a 'stound: Aikendrum

We have heard of Whigs galore: Aikendrum, Aikendrum
We have heard of Whigs galore: Aikendrum
We have searched the country o'er: With cannons and claymore
But still they are before: Aikendrum, Aikendrum
We may seek forever more: : Aikendrum

Ken ya who to gain a Whig: Aikendrum, Aikendrum
Ken ya who to gain a Whig: Aikendrum
Look jolly blithe and big: Take his ain blest side a prig
And the poor worm eaten whig: Aikendrum, Aikendrum
For opposition's sake we will win
%%endtext
%%newpage

